X:1
T:Mayotte, CMD
T:Mayotte, CMD
T:Charles J. Butler, 1894
T:Public Domain Courtesy of the Cyber Hymnal™
C:Charles J. Butler, 1894
Z:Public Domain
Z:Courtesy of the Cyber Hymnal™
%%score ( 1 2 ) ( 3 4 )
L:1/8
Q:1/4=90
M:3/4
K:D
V:1 treble 
V:2 treble 
V:3 bass 
V:4 bass 
V:1
 D[DF]>[EG] | [FA]3 [DF] [EG]>[FA] | [GB]4 [Gd]2 | [Gc]3 [GB] [FA]>[DF] | [CE]3 [EG] [DF]>[EG] | %5
 [FA]3 [FA] [GB]>[FA] | [Fd]4 [GB]2 | [FA]3 [DF] [CE]>[A,D] | !fermata![A,D]3 [FA] [FA]>[FA] | %9
 [FA]3 [FA] [GB]>[FA] | [Fd]4 [GB]2 | [FA]3 [DF] [A,E]>[B,D] | [CE]3 [EG] [DF]>[EG] | %13
 [FA]3 [FA] [GB]>[FA] | [Fd]4 [GB]2 | [FA]3 [DF] [CE]>[A,D] | !fermata![A,D]3 |] %17
V:2
 D x2 | x6 | x6 | x6 | x6 | x6 | x6 | x6 | x6 | x6 | x6 | x6 | x6 | x6 | x6 | x6 | x3 |] %17
V:3
 [D,F,][D,A,]>[D,A,] | [D,D]3 [D,A,] [D,A,]>[D,D] | [G,D]4 [G,B,]2 | [A,E]3 [A,D] [A,,A,]>[A,,A,] | %4
 [A,,A,]3 [C,A,] [D,A,]>[D,A,] | [D,D]3 [D,D] [D,D]>[D,D] | [D,D]4 [G,D]2 | %7
 [A,D]3 A, [A,,G,]>[D,F,] | !fermata![D,F,]3 [D,D] [D,D]>[D,D] | [D,D]3 [D,D] [D,D]>[D,D] | %10
 [D,A,]4 [D,D]2 | [D,D]3 [D,A,] [C,A,]>[B,,^G,] | [A,,A,]3 [C,A,] [D,A,]>[D,A,] | %13
 [D,D]3 [D,D] [D,D]>[D,D] | [D,D]4 [G,D]2 | [A,D]3 A, [A,,G,]>[D,F,] | !fermata![D,F,]3 |] %17
V:4
 x3 | x6 | x6 | x6 | x6 | x6 | x6 | x3 A, x2 | x6 | x6 | x6 | x6 | x6 | x6 | x6 | x3 A, x2 | x3 |] %17

